**harm	**harte	**timestamp	**phrase	**leadinstrument	**kern
*M4/4	*M4/4	*	*	*	*
*e:	*e:	*	*	*	*e:
1r;	N	0	.	r	1r;
=1	=1	=1	=1	=1	=1
*>D_intro	*>D_intro	*>D_intro	*>D_intro	*>D_intro	*>D_intro
1r	N	0.418	newline	r	1r
=2	=2	=2	=2	=2	=2
1i	E:sus4	4.505	.	r	1E 1g 1b
=3	=3	=3	=3	=3	=3
4i	E:min	7.23	newline	synthesizer	4E 4g 4b
2.v7	B:min7	7.897	.	synthesizer	2B 2dd 2ff# 2aa
=4	=4	=4	=4	=4	=4
1iv7	A:min7	9.9	.	synthesizer	1A 1cc 1ee 1gg
=5	=5	=5	=5	=5	=5
2-VI7	C:maj7	12.57	.	synthesizer	2C- 2e- 2g- 2b
2-VIe	C:maj/2	13.906	.	synthesizer	2C- 2e- 2g-
=6	=6	=6	=6	=6	=6
1-VIIe	D:maj/2	15.241	.	synthesizer	1D 1f# 1a
=7	=7	=7	=7	=7	=7
4i	E:min	17.911	newline	synthesizer	4E 4g 4b
2.v7	B:min7	18.581	.	synthesizer	2B 2dd 2ff# 2aa
=8	=8	=8	=8	=8	=8
1iv7	A:min7	20.589	.	synthesizer	1A 1cc 1ee 1gg
=9	=9	=9	=9	=9	=9
2-VI7	C:maj7	23.267	.	synthesizer	2C- 2e- 2g- 2b
2-VIe	C:maj/2	24.606	.	synthesizer	2C- 2e- 2g-
=10	=10	=10	=10	=10	=10
1-VIIe	D:maj/2	25.945	.	synthesizer	1D 1f# 1a
=11	=11	=11	=11	=11	=11
*>A_verse	*>A_verse	*>A_verse	*>A_verse	*>A_verse	*>A_verse
4i	E:min	28.623	newline	voice	4E 4g 4b
2.v7	B:min7	29.291	.	voice	2B 2dd 2ff# 2aa
=12	=12	=12	=12	=12	=12
1iv7	A:min7	31.297	.	voice	1A 1cc 1ee 1gg
=13	=13	=13	=13	=13	=13
2-VI7	C:maj7	33.97	.	voice	2C- 2e- 2g- 2b
2-VIe	C:maj/2	35.307	.	voice	2C- 2e- 2g-
=14	=14	=14	=14	=14	=14
1-VIIe	D:maj/2	36.644	.	voice	1D 1f# 1a
=15	=15	=15	=15	=15	=15
4i	E:min	39.318	newline	voice	4E 4g 4b
2.v7	B:min7	39.988	.	voice	2B 2dd 2ff# 2aa
=16	=16	=16	=16	=16	=16
1iv7	A:min7	41.998	.	voice	1A 1cc 1ee 1gg
=17	=17	=17	=17	=17	=17
2-VI7	C:maj7	44.678	.	voice	2C- 2e- 2g- 2b
2-VIe	C:maj/2	46.018	.	voice	2C- 2e- 2g-
=18	=18	=18	=18	=18	=18
2-VIIe	D:maj/2	47.359	.	voice	2D 2f# 2a
4-IIe	F:maj/2	48.699	.	voice	4F 4a 4cc
4-III	G:maj	49.369	.	voice	4G- 4b- 4dd-
=19	=19	=19	=19	=19	=19
*>B_prechorus	*>B_prechorus	*>B_prechorus	*>B_prechorus	*>B_prechorus	*>B_prechorus
2.-VI7	C:maj7	50.039	newline	voice	2C- 2e- 2g- 2b
4-VIIg	D:maj/6	52.042	.	voice	4D 4f# 4a
=20	=20	=20	=20	=20	=20
2iv7	A:min7	52.71	.	voice	2A 2cc 2ee 2gg
2-VII	D:sus4(b7,9)	54.046	.	voice	2D 2f# 2a
=21	=21	=21	=21	=21	=21
2-III7	G:maj7	55.381	.	voice	2G- 2b- 2dd- 2ff#
2-III7	G:maj9	56.717	.	voice	2G- 2b- 2dd- 2ff#
=22	=22	=22	=22	=22	=22
2-vii7	D:min7	58.052	.	voice	2D 2f 2a 2cc
2-III	G:sus4(b7,9)	59.388	.	voice	2G- 2b- 2dd-
=23	=23	=23	=23	=23	=23
2iv7	A:min7	60.723	newline	voice	2A 2cc 2ee 2gg
2-IIIb	G:maj(9)/3	62.044	.	voice	2g- 2B- 2dd-
=24	=24	=24	=24	=24	=24
2-VI7	C:maj7	63.364	.	voice	2C- 2e- 2g- 2b
2-VII	D:sus4(b7,9)	64.685	.	voice	2D 2f# 2a
=25	=25	=25	=25	=25	=25
*>C_chorus	*>C_chorus	*>C_chorus	*>C_chorus	*>C_chorus	*>C_chorus
4i	E:min	66.005	newline	voice	4E 4g 4b
2.v7	B:min7	66.674	.	voice	2B 2dd 2ff# 2aa
=26	=26	=26	=26	=26	=26
1iv7	A:min7	68.683	.	voice	1A 1cc 1ee 1gg
=27	=27	=27	=27	=27	=27
2-VI7	C:maj7	71.361	.	voice	2C- 2e- 2g- 2b
2-VIe	C:maj/2	72.7	.	voice	2C- 2e- 2g-
=28	=28	=28	=28	=28	=28
1-VIIe	D:maj/2	74.039	.	voice	1D 1f# 1a
=29	=29	=29	=29	=29	=29
4i	E:min	76.717	newline	voice	4E 4g 4b
2.v7	B:min7	77.384	.	voice	2B 2dd 2ff# 2aa
=30	=30	=30	=30	=30	=30
1iv7	A:min7	79.388	.	voice	1A 1cc 1ee 1gg
=31	=31	=31	=31	=31	=31
2-VI7	C:maj7	82.06	.	voice	2C- 2e- 2g- 2b
2-VIe	C:maj/2	83.395	.	voice	2C- 2e- 2g-
=32	=32	=32	=32	=32	=32
1-VIIe	D:maj/2	84.731	.	voice	1D 1f# 1a
=33	=33	=33	=33	=33	=33
*>A_verse	*>A_verse	*>A_verse	*>A_verse	*>A_verse	*>A_verse
4i	E:min	87.402	newline	voice	4E 4g 4b
2.v7	B:min7	88.073	.	voice	2B 2dd 2ff# 2aa
=34	=34	=34	=34	=34	=34
1iv7	A:min7	90.084	.	voice	1A 1cc 1ee 1gg
=35	=35	=35	=35	=35	=35
2-VI7	C:maj7	92.766	.	voice	2C- 2e- 2g- 2b
2-VIe	C:maj/2	94.107	.	voice	2C- 2e- 2g-
=36	=36	=36	=36	=36	=36
1-VIIe	D:maj/2	95.448	.	voice	1D 1f# 1a
=37	=37	=37	=37	=37	=37
4i	E:min	98.13	newline	voice	4E 4g 4b
2.v7	B:min7	98.798	.	voice	2B 2dd 2ff# 2aa
=38	=38	=38	=38	=38	=38
1iv7	A:min7	100.801	.	voice	1A 1cc 1ee 1gg
=39	=39	=39	=39	=39	=39
2-VI7	C:maj7	103.472	.	voice	2C- 2e- 2g- 2b
2-VIe	C:maj/2	104.808	.	voice	2C- 2e- 2g-
=40	=40	=40	=40	=40	=40
2-VIIe	D:maj/2	106.144	.	voice	2D 2f# 2a
4-IIe	F:maj/2	107.479	.	voice	4F 4a 4cc
4-III	G:maj	108.147	.	voice	4G- 4b- 4dd-
=41	=41	=41	=41	=41	=41
*>B_prechorus	*>B_prechorus	*>B_prechorus	*>B_prechorus	*>B_prechorus	*>B_prechorus
2.-VI7	C:maj7	108.815	newline	voice	2C- 2e- 2g- 2b
4-VIIg	D:maj/6	110.824	.	voice	4D 4f# 4a
=42	=42	=42	=42	=42	=42
2iv7	A:min7	111.493	.	voice	2A 2cc 2ee 2gg
2-VII	D:sus4(b7,9)	112.833	.	voice	2D 2f# 2a
=43	=43	=43	=43	=43	=43
2-III7	G:maj7	114.172	.	voice	2G- 2b- 2dd- 2ff#
2-III7	G:maj9	115.511	.	voice	2G- 2b- 2dd- 2ff#
=44	=44	=44	=44	=44	=44
2-vii7	D:min7	116.851	.	voice	2D 2f 2a 2cc
2-III	G:sus4(b7,9)	118.19	.	voice	2G- 2b- 2dd-
=45	=45	=45	=45	=45	=45
2iv7	A:min7	119.529	newline	voice	2A 2cc 2ee 2gg
2-IIIb	G:maj(9)/3	120.855	.	voice	2g- 2B- 2dd-
=46	=46	=46	=46	=46	=46
2-VI7	C:maj7	122.18	.	voice	2C- 2e- 2g- 2b
2-VII	D:sus4(b7,9)	123.506	.	voice	2D 2f# 2a
=47	=47	=47	=47	=47	=47
*>C_chorus	*>C_chorus	*>C_chorus	*>C_chorus	*>C_chorus	*>C_chorus
4i	E:min	124.831	newline	voice	4E 4g 4b
2.v7	B:min7	125.498	.	voice	2B 2dd 2ff# 2aa
=48	=48	=48	=48	=48	=48
1iv7	A:min7	127.496	.	voice	1A 1cc 1ee 1gg
=49	=49	=49	=49	=49	=49
2-VI7	C:maj7	130.16	.	voice	2C- 2e- 2g- 2b
2-VIe	C:maj/2	131.493	.	voice	2C- 2e- 2g-
=50	=50	=50	=50	=50	=50
1-VIIe	D:maj/2	132.825	.	voice	1D 1f# 1a
=51	=51	=51	=51	=51	=51
4i	E:min	135.489	newline	voice	4E 4g 4b
2.v7	B:min7	136.161	.	voice	2B 2dd 2ff# 2aa
=52	=52	=52	=52	=52	=52
1iv7	A:min7	138.176	.	voice	1A 1cc 1ee 1gg
=53	=53	=53	=53	=53	=53
2-VI7	C:maj7	140.863	.	voice	2C- 2e- 2g- 2b
2-VIe	C:maj/2	142.206	.	voice	2C- 2e- 2g-
=54	=54	=54	=54	=54	=54
1-VIIe	D:maj/2	143.55	.	voice	1D 1f# 1a
=55	=55	=55	=55	=55	=55
*>E_bridge	*>E_bridge	*>E_bridge	*>E_bridge	*>E_bridge	*>E_bridge
2iv7	A:min7	146.236	newline	voice	2A 2cc 2ee 2gg
2v7	B:min7	147.575	.	voice	2B 2dd 2ff# 2aa
=56	=56	=56	=56	=56	=56
1i	E:sus4	148.913	.	voice	1E 1g 1b
=57	=57	=57	=57	=57	=57
2iv7	A:min7	151.59	.	voice	2A 2cc 2ee 2gg
2v7	B:min7	152.929	.	voice	2B 2dd 2ff# 2aa
=58	=58	=58	=58	=58	=58
1i	E:sus4	154.267	.	voice	1E 1g 1b
=59	=59	=59	=59	=59	=59
2-vim7	C:min7	156.944	newline	voice	2C- 2e-- 2g- 2b
2-vii7	D:min7	158.287	.	voice	2D 2f 2a 2cc
=60	=60	=60	=60	=60	=60
1-V7	B-:maj7	159.629	.	voice	1B- 1dd 1ff 1aa
=61	=61	=61	=61	=61	=61
1iv	A:sus4	162.315	.	voice	1A 1cc 1ee
=62	=62	=62	=62	=62	=62
1-VII	D:sus4(b7,9)	165	.	voice	1D 1f# 1a
=63	=63	=63	=63	=63	=63
1i	E:min	167.686	newline	voice	1E 1g 1b
=64	=64	=64	=64	=64	=64
1i	E:min	170.357	.	voice	1E 1g 1b
=65	=65	=65	=65	=65	=65
2iv7	A:min7	173.028	.	voice	2A 2cc 2ee 2gg
2v7	B:min7	174.364	.	voice	2B 2dd 2ff# 2aa
=66	=66	=66	=66	=66	=66
2-VI7	C:maj7	175.699	.	voice	2C- 2e- 2g- 2b
2-VII	D:sus4(b7,9)	177.035	.	voice	2D 2f# 2a
=67	=67	=67	=67	=67	=67
1i	E:min	178.371	newline	voice	1E 1g 1b
=68	=68	=68	=68	=68	=68
1i	E:min	181.028	.	voice	1E 1g 1b
=69	=69	=69	=69	=69	=69
2iv7	A:min7	183.685	.	voice	2A 2cc 2ee 2gg
2v7	B:min7	185.014	.	voice	2B 2dd 2ff# 2aa
=70	=70	=70	=70	=70	=70
2-VI7	C:maj7	186.343	.	voice	2C- 2e- 2g- 2b
2-VII	D:sus4(b7,9)	187.671	.	voice	2D 2f# 2a
=71	=71	=71	=71	=71	=71
*>B_prechorus	*>B_prechorus	*>B_prechorus	*>B_prechorus	*>B_prechorus	*>B_prechorus
2.-VI7	C:maj7	189	newline	voice	2C- 2e- 2g- 2b
4-VIIg	D:maj/6	191.005	.	voice	4D 4f# 4a
=72	=72	=72	=72	=72	=72
2iv7	A:min7	191.673	.	voice	2A 2cc 2ee 2gg
2-VII	D:sus4(b7,9)	193.01	.	voice	2D 2f# 2a
=73	=73	=73	=73	=73	=73
2-III7	G:maj7	194.347	.	voice	2G- 2b- 2dd- 2ff#
2-III7	G:maj9	195.684	.	voice	2G- 2b- 2dd- 2ff#
=74	=74	=74	=74	=74	=74
2-vii7	D:min7	197.021	.	voice	2D 2f 2a 2cc
2-III	G:sus4(b7,9)	198.357	.	voice	2G- 2b- 2dd-
=75	=75	=75	=75	=75	=75
2iv7	A:min7	199.694	newline	voice	2A 2cc 2ee 2gg
2-IIIb	G:maj(9)/3	201.026	.	voice	2g- 2B- 2dd-
=76	=76	=76	=76	=76	=76
2-VI7	C:maj7	202.358	.	voice	2C- 2e- 2g- 2b
2-VII	D:sus4(b7,9)	203.69	.	voice	2D 2f# 2a
=77	=77	=77	=77	=77	=77
*>C_chorus	*>C_chorus	*>C_chorus	*>C_chorus	*>C_chorus	*>C_chorus
4i	E:min	205.021	newline	voice	4E 4g 4b
2.v7	B:min7	205.693	.	voice	2B 2dd 2ff# 2aa
=78	=78	=78	=78	=78	=78
1iv7	A:min7	207.709	.	voice	1A 1cc 1ee 1gg
=79	=79	=79	=79	=79	=79
2-VI7	C:maj7	210.397	.	voice	2C- 2e- 2g- 2b
2-VIe	C:maj/2	211.741	.	voice	2C- 2e- 2g-
=80	=80	=80	=80	=80	=80
1-VIIe	D:maj/2	213.085	.	voice	1D 1f# 1a
=81	=81	=81	=81	=81	=81
4i	E:min	215.772	newline	voice	4E 4g 4b
2.v7	B:min7	216.444	.	voice	2B 2dd 2ff# 2aa
=82	=82	=82	=82	=82	=82
1iv7	A:min7	218.457	.	voice	1A 1cc 1ee 1gg
=83	=83	=83	=83	=83	=83
2-VI7	C:maj7	221.141	.	voice	2C- 2e- 2g- 2b
2-VIe	C:maj/2	222.484	.	voice	2C- 2e- 2g-
=84	=84	=84	=84	=84	=84
1-VIIe	D:maj/2	223.826	.	voice	1D 1f# 1a
=85	=85	=85	=85	=85	=85
4i	E:min	226.51	newline	voice	4E 4g 4b
2.v7	B:min7	227.175	.	voice	2B 2dd 2ff# 2aa
=86	=86	=86	=86	=86	=86
1iv7	A:min7	229.17	.	voice	1A 1cc 1ee 1gg
=87	=87	=87	=87	=87	=87
2-VI7	C:maj7	231.829	.	voice	2C- 2e- 2g- 2b
2-VIe	C:maj/2	233.159	.	voice	2C- 2e- 2g-
=88	=88	=88	=88	=88	=88
1-VIIe	D:maj/2	234.489	.	voice	1D 1f# 1a
=89	=89	=89	=89	=89	=89
4i	E:min	237.149	newline	voice	4E 4g 4b
2.v7	B:min7	237.816	.	voice	2B 2dd 2ff# 2aa
=90	=90	=90	=90	=90	=90
1iv7	A:min7	239.816	.	voice	1A 1cc 1ee 1gg
=91	=91	=91	=91	=91	=91
2-VI7	C:maj7	242.483	.	voice	2C- 2e- 2g- 2b
2-VIe	C:maj/2	243.817	.	voice	2C- 2e- 2g-
=92	=92	=92	=92	=92	=92
1-VIIe	D:maj/2	245.151	.	voice	1D 1f# 1a
=93	=93	=93	=93	=93	=93
*>_fadeout	*>_fadeout	*>_fadeout	*>_fadeout	*>_fadeout	*>_fadeout
4i	E:min	247.818	newline	voice	4E 4g 4b
2.v7	B:min7	248.487	.	voice	2B 2dd 2ff# 2aa
=94	=94	=94	=94	=94	=94
1iv7	A:min7	250.495	.	voice	1A 1cc 1ee 1gg
=95	=95	=95	=95	=95	=95
2-VI7	C:maj7	253.171	.	voice	2C- 2e- 2g- 2b
2-VIe	C:maj/2	254.509	.	voice	2C- 2e- 2g-
=96	=96	=96	=96	=96	=96
1-VIIe	D:maj/2	255.848	.	voice	1D 1f# 1a
=97	=97	=97	=97	=97	=97
4i	E:min	258.524	newline	voice	4E 4g 4b
2.v7	B:min7	259.193	.	voice	2B 2dd 2ff# 2aa
=98	=98	=98	=98	=98	=98
1iv7	A:min7	261.2	.	voice	1A 1cc 1ee 1gg
=99	=99	=99	=99	=99	=99
2-VI7	C:maj7	263.877	.	voice	2C- 2e- 2g- 2b
2-VIe	C:maj/2	265.215	.	voice	2C- 2e- 2g-
=100	=100	=100	=100	=100	=100
1-VIIe	D:maj/2	266.553	.	voice	1D 1f# 1a
=101	=101	=101	=101	=101	=101
4i	E:min	269.229	newline	voice	4E 4g 4b
2.v7	B:min7	269.568	.	voice	2B 2dd 2ff# 2aa
=102	=102	=102	=102	=102	=102
1iv7	A:min7	270.583	.	voice	1A 1cc 1ee 1gg
=103	=103	=103	=103	=103	=103
2-VI7	C:maj7	271.937	.	voice	2C- 2e- 2g- 2b
2-VIe	C:maj/2	272.614	.	voice	2C- 2e- 2g-
=104	=104	=104	=104	=104	=104
1-VIIe	D:maj/2	273.291	.	voice	1D 1f# 1a
1r;	N	274.646	.	r	1r;
1r;	N	276.846	.	r	1r;
*-	*-	*-	*-	*-	*-
!!!OTL: Have You Ever Loved Somebody
!!!COC: Freddie Jackson
!!!BillboardChartDate: 1987/02/21
!!!BillboardPeak: 69
!!!BillboardWeeksOnChart: 9
!!!SampleTargetRank: 75
!!!SampleActualRank: 74
!!!SampleID#: 0122
!!!RDF**harmony: **recip + pitch class of root + harmonic quality
!!!RDF**harte: Chris Harte's syntax, used by MIREX
!!!RDF**phrase: newline = linebreak in original McGill transcription
!!!RDF**timestamp: McGill audio timestamp in seconds
!!!RDF**leadinstrument: original McGill primary instrumentation annotation
!!!RDT: 2017/01/12/
!!!ENC: Nathaniel Condit-Schultz
!!!EST: Awating manual error checking and editing.
